packages/dnb-eufemia/assets/icons/exclamation_triangle_medium.svg

<svg width="24" height="24" viewBox="0 0 24 24" fill="none" xmlns="http://www.w3.org/2000/svg">
<path d="M11.9996 13.8179V8.81844M22.6561 17.331C22.9043 17.8228 23.0215 18.3694 22.9967 18.9189C22.9719 19.4683 22.8059 20.0023 22.5144 20.4702C22.2228 20.9381 21.8155 21.3242 21.3311 21.592C20.8467 21.8597 20.3013 22.0002 19.7468 22H4.25252C3.69794 22.0004 3.15248 21.86 2.66804 21.5923C2.18361 21.3245 1.7763 20.9383 1.48489 20.4703C1.19348 20.0023 1.02764 19.4682 1.00317 18.9187C0.978692 18.3692 1.09639 17.8226 1.34506 17.331L9.09035 3.78399C9.36034 3.24796 9.77555 2.79712 10.2894 2.48202C10.8033 2.16691 11.3955 2 11.9996 2C12.6038 2 13.196 2.16691 13.7099 2.48202C14.2238 2.79712 14.639 3.24796 14.9089 3.78399L22.6561 17.331Z" stroke="black" stroke-width="1.5" stroke-linecap="round" stroke-linejoin="round"/>
<path d="M12 16.2856C11.7457 16.2856 11.4971 16.361 11.2857 16.5023C11.0743 16.6436 10.9095 16.8444 10.8122 17.0793C10.7149 17.3143 10.6894 17.5728 10.739 17.8222C10.7886 18.0716 10.9111 18.3007 11.0909 18.4805C11.2707 18.6603 11.4998 18.7828 11.7492 18.8324C11.9986 18.882 12.2571 18.8565 12.492 18.7592C12.727 18.6619 12.9278 18.4971 13.069 18.2857C13.2103 18.0742 13.2857 17.8256 13.2857 17.5714C13.2857 17.2304 13.1503 16.9033 12.9091 16.6622C12.668 16.4211 12.341 16.2856 12 16.2856Z" fill="black"/>
</svg>

<svg width="24" height="24" viewBox="0 0 24 24" fill="none" xmlns="http://www.w3.org/2000/svg"><path d="M12 13.818v-5m-.177 8.744h.346m10.487-.231a3.203 3.203 0 0 1-.142 3.14 3.241 3.241 0 0 1-1.183 1.121 3.274 3.274 0 0 1-1.584.408H4.253c-.555 0-1.1-.14-1.585-.408a3.24 3.24 0 0 1-1.183-1.122 3.205 3.205 0 0 1-.14-3.139L9.09 3.784c.27-.536.686-.987 1.2-1.302a3.272 3.272 0 0 1 3.42 0c.514.315.929.766 1.199 1.302l7.747 13.547Zm-10.408.231c0 .183-.16.243-.248.243-.092 0-.252-.06-.252-.243 0-.197.16-.257.252-.257.088 0 .248.06.248.257Z" stroke="#000" stroke-width="1.5" stroke-linecap="round" stroke-linejoin="round"/></svg>
